X:1
T:Like a River Glorious
T:Text: Frances R. Havergal, 1878, alt. Tune: James Mountain, 1876
T:65 65 D with refrain WYE VALLEY www.hymnary.org/text/like_a_river_glorious
T:Like a River Glorious
T:This hymn is in the public domain. You may freely use this score for personal and congregational worship. If you reproduce the score, please credit Hymnary.org as the source. 
T:This hymn is in the public domain. You may freely use this score for personal and congregational worship. If you reproduce the score, please credit Hymnary.org as the source. 
T:This hymn is in the public domain. You may freely use this score for personal and congregational worship. If you reproduce the score, please credit Hymnary.org as the source. 
Z:This hymn is in the public domain. You may freely use this score for personal and congregational worship. If you reproduce the score, please credit Hymnary.org as the source.
%%score ( 1 2 ) ( 3 4 )
L:1/8
M:4/4
K:F
V:1 treble nm="SOPRANO ALTO" snm="S. A."
V:2 treble 
V:3 bass nm="TENOR BASS" snm="T. B."
V:4 bass 
V:1
"^1""^2" F2 F2 G2 G2 | A4 c4 | B2 B2 G2 G2 | A8 | F2 F2 G2 G2 | A4 F4 | E2 E2 D2 D2 | C8 | %8
w: Like a riv- er|glo- rious|is God's per- fect|peace,|o- ver all vic-|to- rious|in its bright in-|crease:|
w: Hid- den in the|hol- low|of his might- y|hand,|where no harm can|fol- low,|in his strength we|stand.|
 c2 c2 c2 c2 | d4 c4 | B2 B2 A2 A2 | G8 |1 A2 A2 G2 G2 | F4 G4 | A2 A2 G2 G2 | F8 || %16
w: per- fect, yet still|flow- ing|full- er ev- ery|day;|per- fect, yet still|grow- ing|deep- er all the|way.|
w: We may trust him|ful- ly|all for us to|do;|those who trust him|whol- ly|find him whol- ly|true.|
"^Page 2""^Refrain" c2 c2 c2 c2 | d4 c4 | B2 B2 A2"^Like a River Glorious" A2 | G8 | A2 A2 G2 G2 | %21
w: Trust- ing in the|Fa- ther,|hearts are ful- ly|blest,|find- ing, as he|
w: |||||
 F4 G4 | A2 A2 G2 G2 | F8 |] %24
w: prom- ised,|per- fect peace and|rest.|
w: |||
V:2
 C2 C2 C2 C2 | C4 _E4 | D2 F2 F2 E2 | F8 | C2 C2 C2 C2 | C4 C4 | C2 C2 A,2 =B,2 | C8 | %8
 C2 F2 E2 F2 | F4 F4 | F2 E2 F2 F2 | E8 |1 F2 F2 E2 E2 | D4 D4 | C2 F2 D2 E2 | C8 || C2 F2 E2 F2 | %17
 F4 F4 | F2 E2 F2 F2 | E8 | F2 F2 E2 E2 | D4 D4 | C2 F2 F2 E2 | C8 |] %24
V:3
 A,2 A,2 G,2 G,2 | F,4 F,4 | F,2 D2 C2 C2 | C8 | A,2 A,2 G,2 G,2 | F,4 F,4 | G,2 G,2 F,2 F,2 | %7
 E,8 | A,2 A,2 B,2 C2 | B,4 C4 | D2 C2 C2 C2 | C8 |1 C2 C2 B,2 B,2 | A,4 (G,2 F,2) | %14
 F,2 A,2 B,2 B,2 | A,8 || A,2 A,2 B,2 C2 | B,4 C4 | D2 C2 C2 C2 | C8 | C2 C2 B,2 B,2 | %21
 A,4 (G,2 F,2) | F,2 A,2 C2 B,2 | A,8 |] %24
V:4
 F,2 F,2 E,2 E,2 | F,4 A,,4 | B,,2 B,,2 C,2 C,2 | F,8 | F,2 F,2 E,2 E,2 | F,4 A,,4 | %6
 G,,2 G,,2 G,,2 G,,2 | C,8 | F,2 F,2 G,2 A,2 | B,4 A,4 | G,2 G,2 F,2 F,2 | C,8 |1 %12
 F,2 F,2 ^C,2 C,2 | D,4 =B,,4 | C,2 C,2 C,2 C,2 | F,8 || F,2 F,2 G,2 A,2 | B,4 A,4 | %18
 G,2 G,2 F,2 F,2 | C,8 | F,2 F,2 ^C,2 C,2 | D,4 =B,,4 | C,2 C,2 C,2 C,2 | F,8 |] %24

